src/img/decor/category-end.svg

<svg width="271" height="884" viewBox="0 0 271 884" fill="none" xmlns="http://www.w3.org/2000/svg">
<mask id="path-1-inside-1_11_3" fill="white">
<path fill-rule="evenodd" clip-rule="evenodd" d="M287.973 138.647C287.973 138.647 247.233 272.21 224.551 321.893C201.868 371.576 170.816 409.403 116.925 450.53C63.0352 491.656 37.6195 585.16 127.496 698.095C217.372 811.028 283.78 843.417 299.504 854.641"/>
</mask>
<path fill-rule="evenodd" clip-rule="evenodd" d="M287.973 138.647C287.973 138.647 247.233 272.21 224.551 321.893C201.868 371.576 170.816 409.403 116.925 450.53C63.0352 491.656 37.6195 585.16 127.496 698.095C217.372 811.028 283.78 843.417 299.504 854.641" fill="black" fill-opacity="0.01"/>
<path d="M127.496 698.095L126.713 698.717L127.496 698.095ZM287.973 138.647C287.016 138.355 287.016 138.355 287.016 138.356C287.015 138.357 287.015 138.359 287.014 138.361C287.013 138.365 287.011 138.371 287.009 138.379C287.004 138.395 286.997 138.419 286.987 138.452C286.967 138.516 286.938 138.612 286.899 138.739C286.821 138.993 286.706 139.371 286.554 139.865C286.25 140.855 285.801 142.314 285.222 144.188C284.065 147.936 282.385 153.345 280.299 159.993C276.126 173.288 270.326 191.531 263.818 211.326C250.794 250.937 234.955 296.695 223.641 321.478L225.461 322.308C236.829 297.408 252.701 251.543 265.718 211.951C272.23 192.145 278.032 173.893 282.207 160.592C284.294 153.941 285.975 148.528 287.133 144.778C287.713 142.903 288.162 141.443 288.466 140.452C288.618 139.957 288.734 139.578 288.811 139.324C288.85 139.197 288.88 139.1 288.899 139.036C288.909 139.004 288.917 138.979 288.922 138.963C288.924 138.955 288.926 138.949 288.927 138.945C288.928 138.943 288.928 138.941 288.929 138.94C288.929 138.939 288.929 138.938 287.973 138.647ZM223.641 321.478C201.038 370.986 170.102 408.689 116.319 449.735L117.532 451.325C171.529 410.116 202.698 372.166 225.461 322.308L223.641 321.478ZM116.319 449.735C89.14 470.476 69.1678 504.408 67.2991 547.341C65.4305 590.272 81.6643 642.111 126.713 698.717L128.278 697.472C83.451 641.144 67.4545 589.764 69.2972 547.428C71.1399 505.093 90.8206 471.71 117.532 451.325L116.319 449.735ZM126.713 698.717C171.698 755.243 210.824 791.628 240.686 815.293C270.472 838.897 291.229 849.963 298.923 855.455L300.085 853.828C292.055 848.095 271.746 837.355 241.928 813.725C212.186 790.156 173.169 753.88 128.278 697.472L126.713 698.717Z" fill="#ECECEC" mask="url(#path-1-inside-1_11_3)"/>
<mask id="path-3-inside-2_11_3" fill="white">
<path fill-rule="evenodd" clip-rule="evenodd" d="M290.856 10.0104C290.856 10.0104 263.373 8.9841 229.355 136.22C195.338 263.455 178.942 298.761 153.441 344.951C127.94 391.14 100.655 419.998 64.0734 445.675C27.4925 471.353 -32.6659 546.355 56.3861 677.463C145.438 808.572 306.33 907.88 333.137 863.137"/>
</mask>
<path fill-rule="evenodd" clip-rule="evenodd" d="M290.856 10.0104C290.856 10.0104 263.373 8.9841 229.355 136.22C195.338 263.455 178.942 298.761 153.441 344.951C127.94 391.14 100.655 419.998 64.0734 445.675C27.4925 471.353 -32.6659 546.355 56.3861 677.463C145.438 808.572 306.33 907.88 333.137 863.137" fill="black" fill-opacity="0.01"/>
<path d="M229.355 136.22L230.322 136.478L229.355 136.22ZM153.441 344.951L154.317 345.434V345.434L153.441 344.951ZM64.0734 445.675L63.4989 444.856L63.4989 444.856L64.0734 445.675ZM56.3861 677.463L57.2133 676.901L56.3861 677.463ZM290.856 10.0104C290.893 9.01111 290.891 9.01103 290.888 9.01094C290.887 9.01091 290.885 9.01083 290.883 9.01077C290.879 9.01066 290.875 9.01056 290.87 9.01047C290.86 9.01029 290.849 9.01017 290.836 9.01016C290.811 9.01014 290.778 9.0106 290.739 9.01202C290.661 9.01488 290.557 9.02161 290.427 9.0362C290.167 9.06541 289.806 9.12597 289.348 9.24928C288.432 9.49611 287.139 9.99239 285.51 10.9839C282.255 12.965 277.663 16.9213 272.047 24.8224C260.823 40.6129 245.41 72.2988 228.389 135.962L230.322 136.478C247.318 72.9053 262.656 41.4864 273.677 25.9811C279.184 18.2343 283.589 14.4949 286.55 12.6923C288.029 11.792 289.149 11.3744 289.869 11.1804C290.229 11.0832 290.491 11.0416 290.65 11.0237C290.73 11.0147 290.784 11.0117 290.812 11.0107C290.827 11.0102 290.834 11.0102 290.835 11.0102C290.836 11.0102 290.835 11.0102 290.832 11.0101C290.83 11.0101 290.829 11.01 290.826 11.01C290.825 11.0099 290.823 11.0099 290.823 11.0099C290.821 11.0098 290.818 11.0097 290.856 10.0104ZM228.389 135.962C194.385 263.148 178.014 298.372 152.566 344.468L154.317 345.434C179.869 299.151 196.291 263.762 230.322 136.478L228.389 135.962ZM152.566 344.468C127.139 390.522 99.9572 419.266 63.4989 444.856L64.6479 446.493C101.352 420.73 128.742 391.758 154.317 345.434L152.566 344.468ZM63.4989 444.856C45.0648 457.796 20.6898 483.16 12.141 521.817C3.58614 560.501 10.9212 612.307 55.5588 678.025L57.2133 676.901C12.799 611.512 5.68723 560.262 14.0938 522.249C22.5064 484.208 46.5012 459.232 64.648 446.493L63.4989 444.856ZM55.5588 678.025C100.165 743.698 162.751 801.393 217.558 837.082C244.955 854.922 270.469 867.303 290.866 872.408C301.062 874.96 310.049 875.712 317.382 874.366C324.743 873.014 330.467 869.538 333.995 863.651L332.279 862.623C329.105 867.921 323.937 871.129 317.021 872.399C310.076 873.674 301.4 872.983 291.351 870.468C271.259 865.44 245.958 853.189 218.649 835.406C164.046 799.85 101.659 742.337 57.2133 676.901L55.5588 678.025Z" fill="#ECECEC" mask="url(#path-3-inside-2_11_3)"/>
<g filter="url(#filter0_d_11_3)">
<path fill-rule="evenodd" clip-rule="evenodd" d="M154.484 565C164.158 565 172 573.059 172 583C172 592.941 164.158 601 154.484 601C144.811 601 136.969 592.941 136.969 583C136.969 573.059 144.811 565 154.484 565Z" fill="black" fill-opacity="0.01"/>
<path d="M154.484 566C163.58 566 171 573.585 171 583C171 592.415 163.58 600 154.484 600C145.389 600 137.969 592.415 137.969 583C137.969 573.585 145.389 566 154.484 566Z" stroke="#FE3E57" stroke-width="2"/>
</g>
<g filter="url(#filter1_d_11_3)">
<path fill-rule="evenodd" clip-rule="evenodd" d="M115.469 235C118.506 235 120.969 237.462 120.969 240.5C120.969 243.537 118.506 246 115.469 246C112.431 246 109.969 243.537 109.969 240.5C109.969 237.462 112.431 235 115.469 235Z" fill="black" fill-opacity="0.01"/>
<path d="M115.469 236C117.954 236 119.969 238.015 119.969 240.5C119.969 242.985 117.954 245 115.469 245C112.983 245 110.969 242.985 110.969 240.5C110.969 238.015 112.983 236 115.469 236Z" stroke="#34C3FF" stroke-width="2"/>
</g>
<g filter="url(#filter2_d_11_3)">
<path fill-rule="evenodd" clip-rule="evenodd" d="M206.92 708.527L203.125 704.57C202.663 704.088 202.663 703.305 203.125 702.823C203.588 702.341 204.338 702.341 204.801 702.823L208.596 706.78L212.391 702.823C212.853 702.341 213.604 702.341 214.066 702.823C214.529 703.305 214.529 704.088 214.066 704.57L210.271 708.527L214.066 712.485C214.529 712.968 214.529 713.749 214.066 714.232C213.604 714.714 212.853 714.714 212.391 714.232L208.596 710.275L204.801 714.232C204.338 714.714 203.588 714.714 203.125 714.232C202.663 713.749 202.663 712.968 203.125 712.485L206.92 708.527Z" fill="#34C3FF"/>
</g>
<g filter="url(#filter3_d_11_3)">
<path fill-rule="evenodd" clip-rule="evenodd" d="M213.988 454.343L219.646 460L213.988 465.656L208.331 460L213.988 454.343Z" fill="#5800E4"/>
</g>
<g filter="url(#filter4_d_11_3)">
<path fill-rule="evenodd" clip-rule="evenodd" d="M42.2752 377.194L38.48 373.237C38.0173 372.754 38.0173 371.972 38.48 371.49C38.9427 371.008 39.6927 371.008 40.1554 371.49L43.9506 375.447L47.7457 371.49C48.2084 371.008 48.9585 371.008 49.4211 371.49C49.8838 371.972 49.8838 372.754 49.4211 373.237L45.6259 377.194L49.4211 381.152C49.8838 381.634 49.8838 382.416 49.4211 382.898C48.9585 383.38 48.2084 383.38 47.7457 382.898L43.9506 378.941L40.1554 382.898C39.6927 383.38 38.9427 383.38 38.48 382.898C38.0173 382.416 38.0173 381.634 38.48 381.152L42.2752 377.194Z" fill="#FFB534"/>
</g>
<g filter="url(#filter5_d_11_3)">
<path fill-rule="evenodd" clip-rule="evenodd" d="M182.566 89.5492L178.771 85.5918C178.308 85.1093 178.308 84.3272 178.771 83.8447C179.234 83.3618 179.984 83.3618 180.447 83.8447L184.242 87.8025L188.037 83.8447C188.5 83.3618 189.25 83.3618 189.712 83.8447H189.712C190.175 84.3272 190.175 85.1093 189.712 85.5918L185.917 89.5492L189.712 93.5062C190.175 93.9887 190.175 94.7716 189.712 95.2537H189.712C189.25 95.7362 188.5 95.7362 188.037 95.2537L184.242 91.2967L180.447 95.2537C179.984 95.7362 179.234 95.7362 178.771 95.2537C178.308 94.7716 178.308 93.9887 178.771 93.5062L182.566 89.5492Z" fill="#FE3E57"/>
</g>
<defs>
<filter id="filter0_d_11_3" x="131.969" y="563" width="45.0311" height="45.9998" filterUnits="userSpaceOnUse" color-interpolation-filters="sRGB">
<feFlood flood-opacity="0" result="BackgroundImageFix"/>
<feColorMatrix in="SourceAlpha" type="matrix" values="0 0 0 0 0 0 0 0 0 0 0 0 0 0 0 0 0 0 127 0" result="hardAlpha"/>
<feOffset dy="3"/>
<feGaussianBlur stdDeviation="2.5"/>
<feColorMatrix type="matrix" values="0 0 0 0 0.996078 0 0 0 0 0.243137 0 0 0 0 0.341176 0 0 0 0.4 0"/>
<feBlend mode="normal" in2="BackgroundImageFix" result="effect1_dropShadow_11_3"/>
<feBlend mode="normal" in="SourceGraphic" in2="effect1_dropShadow_11_3" result="shape"/>
</filter>
<filter id="filter1_d_11_3" x="104.969" y="233" width="20.9999" height="20.9999" filterUnits="userSpaceOnUse" color-interpolation-filters="sRGB">
<feFlood flood-opacity="0" result="BackgroundImageFix"/>
<feColorMatrix in="SourceAlpha" type="matrix" values="0 0 0 0 0 0 0 0 0 0 0 0 0 0 0 0 0 0 127 0" result="hardAlpha"/>
<feOffset dy="3"/>
<feGaussianBlur stdDeviation="2.5"/>
<feColorMatrix type="matrix" values="0 0 0 0 0.203922 0 0 0 0 0.764706 0 0 0 0 1 0 0 0 0.4 0"/>
<feBlend mode="normal" in2="BackgroundImageFix" result="effect1_dropShadow_11_3"/>
<feBlend mode="normal" in="SourceGraphic" in2="effect1_dropShadow_11_3" result="shape"/>
</filter>
<filter id="filter2_d_11_3" x="197.778" y="700.461" width="21.635" height="22.1324" filterUnits="userSpaceOnUse" color-interpolation-filters="sRGB">
<feFlood flood-opacity="0" result="BackgroundImageFix"/>
<feColorMatrix in="SourceAlpha" type="matrix" values="0 0 0 0 0 0 0 0 0 0 0 0 0 0 0 0 0 0 127 0" result="hardAlpha"/>
<feOffset dy="3"/>
<feGaussianBlur stdDeviation="2.5"/>
<feColorMatrix type="matrix" values="0 0 0 0 0.203922 0 0 0 0 0.764706 0 0 0 0 1 0 0 0 0.4 0"/>
<feBlend mode="normal" in2="BackgroundImageFix" result="effect1_dropShadow_11_3"/>
<feBlend mode="normal" in="SourceGraphic" in2="effect1_dropShadow_11_3" result="shape"/>
</filter>
<filter id="filter3_d_11_3" x="203.331" y="452.343" width="21.3147" height="21.3136" filterUnits="userSpaceOnUse" color-interpolation-filters="sRGB">
<feFlood flood-opacity="0" result="BackgroundImageFix"/>
<feColorMatrix in="SourceAlpha" type="matrix" values="0 0 0 0 0 0 0 0 0 0 0 0 0 0 0 0 0 0 127 0" result="hardAlpha"/>
<feOffset dy="3"/>
<feGaussianBlur stdDeviation="2.5"/>
<feColorMatrix type="matrix" values="0 0 0 0 0.345098 0 0 0 0 0 0 0 0 0 0.894118 0 0 0 0.4 0"/>
<feBlend mode="normal" in2="BackgroundImageFix" result="effect1_dropShadow_11_3"/>
<feBlend mode="normal" in="SourceGraphic" in2="effect1_dropShadow_11_3" result="shape"/>
</filter>
<filter id="filter4_d_11_3" x="33.1329" y="369.128" width="21.6351" height="22.1318" filterUnits="userSpaceOnUse" color-interpolation-filters="sRGB">
<feFlood flood-opacity="0" result="BackgroundImageFix"/>
<feColorMatrix in="SourceAlpha" type="matrix" values="0 0 0 0 0 0 0 0 0 0 0 0 0 0 0 0 0 0 127 0" result="hardAlpha"/>
<feOffset dy="3"/>
<feGaussianBlur stdDeviation="2.5"/>
<feColorMatrix type="matrix" values="0 0 0 0 1 0 0 0 0 0.709804 0 0 0 0 0.203922 0 0 0 0.4 0"/>
<feBlend mode="normal" in2="BackgroundImageFix" result="effect1_dropShadow_11_3"/>
<feBlend mode="normal" in="SourceGraphic" in2="effect1_dropShadow_11_3" result="shape"/>
</filter>
<filter id="filter5_d_11_3" x="173.424" y="81.4825" width="21.6351" height="22.1331" filterUnits="userSpaceOnUse" color-interpolation-filters="sRGB">
<feFlood flood-opacity="0" result="BackgroundImageFix"/>
<feColorMatrix in="SourceAlpha" type="matrix" values="0 0 0 0 0 0 0 0 0 0 0 0 0 0 0 0 0 0 127 0" result="hardAlpha"/>
<feOffset dy="3"/>
<feGaussianBlur stdDeviation="2.5"/>
<feColorMatrix type="matrix" values="0 0 0 0 0.996078 0 0 0 0 0.243137 0 0 0 0 0.341176 0 0 0 0.4 0"/>
<feBlend mode="normal" in2="BackgroundImageFix" result="effect1_dropShadow_11_3"/>
<feBlend mode="normal" in="SourceGraphic" in2="effect1_dropShadow_11_3" result="shape"/>
</filter>
</defs>
</svg>

<svg width="271" height="884" fill="none" xmlns="http://www.w3.org/2000/svg"><mask id="path-1-inside-1_11_3" fill="#fff"><path fill-rule="evenodd" clip-rule="evenodd" d="M287.973 138.647s-40.74 133.563-63.422 183.246c-22.683 49.683-53.735 87.51-107.626 128.637-53.89 41.126-79.305 134.63 10.571 247.565 89.876 112.933 156.284 145.322 172.008 156.546"/></mask><path fill-rule="evenodd" clip-rule="evenodd" d="M287.973 138.647s-40.74 133.563-63.422 183.246c-22.683 49.683-53.735 87.51-107.626 128.637-53.89 41.126-79.305 134.63 10.571 247.565 89.876 112.933 156.284 145.322 172.008 156.546" fill="#000" fill-opacity=".01"/><path d="M127.496 698.095l-.783.622.783-.622zm160.477-559.448l-.957-.291-.002.005-.005.018-.022.073-.088.287-.345 1.126a3652.238 3652.238 0 01-6.255 20.128 4063.741 4063.741 0 01-16.481 51.333c-13.024 39.611-28.863 85.369-40.177 110.152l1.82.83c11.368-24.9 27.24-70.765 40.257-110.357a4060.634 4060.634 0 0022.748-71.499l.345-1.128.088-.288.023-.073.005-.018.002-.005c0-.001 0-.002-.956-.293zm-64.332 182.831c-22.603 49.508-53.539 87.211-107.322 128.257l1.213 1.59c53.997-41.209 85.166-79.159 107.929-129.017l-1.82-.83zM116.319 449.735c-27.179 20.741-47.151 54.673-49.02 97.606-1.869 42.931 14.365 94.77 59.414 151.376l1.565-1.245c-44.827-56.328-60.823-107.708-58.98-150.044 1.842-42.335 21.523-75.718 48.234-96.103l-1.213-1.59zm10.394 248.982c44.985 56.526 84.111 92.911 113.973 116.576 29.786 23.604 50.543 34.67 58.237 40.162l1.162-1.627c-8.03-5.733-28.339-16.473-58.157-40.103-29.742-23.569-68.759-59.845-113.65-116.253l-1.565 1.245z" fill="#ECECEC" mask="url(#path-1-inside-1_11_3)"/><mask id="path-3-inside-2_11_3" fill="#fff"><path fill-rule="evenodd" clip-rule="evenodd" d="M290.856 10.01s-27.483-1.026-61.501 126.21c-34.017 127.235-50.413 162.541-75.914 208.731-25.501 46.189-52.786 75.047-89.368 100.724-36.58 25.678-96.739 100.68-7.687 231.788C145.438 808.572 306.33 907.88 333.137 863.137"/></mask><path fill-rule="evenodd" clip-rule="evenodd" d="M290.856 10.01s-27.483-1.026-61.501 126.21c-34.017 127.235-50.413 162.541-75.914 208.731-25.501 46.189-52.786 75.047-89.368 100.724-36.58 25.678-96.739 100.68-7.687 231.788C145.438 808.572 306.33 907.88 333.137 863.137" fill="#000" fill-opacity=".01"/><path d="M229.355 136.22l.967.258-.967-.258zm-75.914 208.731l.876.483-.876-.483zM64.073 445.675l-.574-.819.574.819zm-7.687 231.788l.827-.562-.827.562zM290.856 10.01c.037-.999.035-.999.032-1h-.005a1.304 1.304 0 00-.047 0c-.025 0-.058 0-.097.002-.078.003-.182.01-.312.024-.26.03-.621.09-1.079.213-.916.247-2.209.743-3.838 1.735-3.255 1.981-7.847 5.937-13.463 13.838-11.224 15.79-26.637 47.477-43.658 111.14l1.933.516c16.996-63.573 32.334-94.992 43.355-110.497 5.507-7.747 9.912-11.486 12.873-13.289 1.479-.9 2.599-1.318 3.319-1.512.36-.097.622-.138.781-.156.08-.01.134-.012.162-.013h.02l-.006-.001h-.003c-.002 0-.005 0 .033-1zm-62.467 125.952c-34.004 127.186-50.375 162.41-75.823 208.506l1.751.966c25.552-46.283 41.974-81.672 76.005-208.956l-1.933-.516zm-75.823 208.506c-25.427 46.054-52.609 74.798-89.067 100.388l1.149 1.637c36.704-25.763 64.094-54.735 89.669-101.059l-1.751-.966zM63.499 444.856c-18.434 12.94-42.81 38.304-51.358 76.961-8.555 38.684-1.22 90.49 43.418 156.208l1.654-1.124C12.8 611.512 5.687 560.262 14.093 522.249c8.413-38.041 32.408-63.017 50.555-75.756l-1.15-1.637zm-7.94 233.169c44.606 65.673 107.192 123.368 161.999 159.057 27.397 17.84 52.911 30.221 73.308 35.326 10.196 2.552 19.183 3.304 26.516 1.958 7.361-1.352 13.085-4.828 16.613-10.715l-1.716-1.028c-3.174 5.298-8.342 8.506-15.258 9.776-6.945 1.275-15.621.584-25.67-1.931-20.092-5.028-45.393-17.279-72.702-35.062-54.603-35.556-116.99-93.069-161.436-158.505l-1.654 1.124z" fill="#ECECEC" mask="url(#path-3-inside-2_11_3)"/><g filter="url(#filter0_d_11_3)"><path fill-rule="evenodd" clip-rule="evenodd" d="M154.484 565c9.674 0 17.516 8.059 17.516 18s-7.842 18-17.516 18c-9.673 0-17.515-8.059-17.515-18s7.842-18 17.515-18z" fill="#000" fill-opacity=".01"/><path d="M154.484 566c9.096 0 16.516 7.585 16.516 17s-7.42 17-16.516 17c-9.095 0-16.515-7.585-16.515-17s7.42-17 16.515-17z" stroke="#FE3E57" stroke-width="2"/></g><g filter="url(#filter1_d_11_3)"><path fill-rule="evenodd" clip-rule="evenodd" d="M115.469 235a5.5 5.5 0 110 11 5.5 5.5 0 010-11z" fill="#000" fill-opacity=".01"/><path d="M115.469 236a4.5 4.5 0 110 9 4.5 4.5 0 010-9z" stroke="#34C3FF" stroke-width="2"/></g><g filter="url(#filter2_d_11_3)"><path fill-rule="evenodd" clip-rule="evenodd" d="M206.92 708.527l-3.795-3.957a1.274 1.274 0 010-1.747 1.152 1.152 0 011.676 0l3.795 3.957 3.795-3.957a1.15 1.15 0 011.675 0 1.272 1.272 0 010 1.747l-3.795 3.957 3.795 3.958a1.272 1.272 0 010 1.747 1.15 1.15 0 01-1.675 0l-3.795-3.957-3.795 3.957a1.152 1.152 0 01-1.676 0 1.274 1.274 0 010-1.747l3.795-3.958z" fill="#34C3FF"/></g><g filter="url(#filter3_d_11_3)"><path fill-rule="evenodd" clip-rule="evenodd" d="M213.988 454.343l5.658 5.657-5.658 5.656-5.657-5.656 5.657-5.657z" fill="#5800E4"/></g><g filter="url(#filter4_d_11_3)"><path fill-rule="evenodd" clip-rule="evenodd" d="M42.275 377.194l-3.795-3.957a1.273 1.273 0 010-1.747 1.151 1.151 0 011.675 0l3.796 3.957 3.795-3.957a1.151 1.151 0 011.675 0 1.273 1.273 0 010 1.747l-3.795 3.957 3.795 3.958a1.272 1.272 0 010 1.746 1.151 1.151 0 01-1.675 0l-3.795-3.957-3.796 3.957a1.151 1.151 0 01-1.675 0 1.272 1.272 0 010-1.746l3.795-3.958z" fill="#FFB534"/></g><g filter="url(#filter5_d_11_3)"><path fill-rule="evenodd" clip-rule="evenodd" d="M182.566 89.55l-3.795-3.958a1.272 1.272 0 010-1.747 1.15 1.15 0 011.676 0l3.795 3.957 3.795-3.957a1.15 1.15 0 011.675 0 1.272 1.272 0 010 1.747l-3.795 3.957 3.795 3.957a1.273 1.273 0 010 1.748 1.15 1.15 0 01-1.675 0l-3.795-3.957-3.795 3.957a1.151 1.151 0 01-1.676 0 1.273 1.273 0 010-1.748l3.795-3.957z" fill="#FE3E57"/></g><defs><filter id="filter0_d_11_3" x="131.969" y="563" width="45.031" height="46" filterUnits="userSpaceOnUse" color-interpolation-filters="sRGB"><feFlood flood-opacity="0" result="BackgroundImageFix"/><feColorMatrix in="SourceAlpha" values="0 0 0 0 0 0 0 0 0 0 0 0 0 0 0 0 0 0 127 0" result="hardAlpha"/><feOffset dy="3"/><feGaussianBlur stdDeviation="2.5"/><feColorMatrix values="0 0 0 0 0.996078 0 0 0 0 0.243137 0 0 0 0 0.341176 0 0 0 0.4 0"/><feBlend in2="BackgroundImageFix" result="effect1_dropShadow_11_3"/><feBlend in="SourceGraphic" in2="effect1_dropShadow_11_3" result="shape"/></filter><filter id="filter1_d_11_3" x="104.969" y="233" width="21" height="21" filterUnits="userSpaceOnUse" color-interpolation-filters="sRGB"><feFlood flood-opacity="0" result="BackgroundImageFix"/><feColorMatrix in="SourceAlpha" values="0 0 0 0 0 0 0 0 0 0 0 0 0 0 0 0 0 0 127 0" result="hardAlpha"/><feOffset dy="3"/><feGaussianBlur stdDeviation="2.5"/><feColorMatrix values="0 0 0 0 0.203922 0 0 0 0 0.764706 0 0 0 0 1 0 0 0 0.4 0"/><feBlend in2="BackgroundImageFix" result="effect1_dropShadow_11_3"/><feBlend in="SourceGraphic" in2="effect1_dropShadow_11_3" result="shape"/></filter><filter id="filter2_d_11_3" x="197.778" y="700.461" width="21.635" height="22.132" filterUnits="userSpaceOnUse" color-interpolation-filters="sRGB"><feFlood flood-opacity="0" result="BackgroundImageFix"/><feColorMatrix in="SourceAlpha" values="0 0 0 0 0 0 0 0 0 0 0 0 0 0 0 0 0 0 127 0" result="hardAlpha"/><feOffset dy="3"/><feGaussianBlur stdDeviation="2.5"/><feColorMatrix values="0 0 0 0 0.203922 0 0 0 0 0.764706 0 0 0 0 1 0 0 0 0.4 0"/><feBlend in2="BackgroundImageFix" result="effect1_dropShadow_11_3"/><feBlend in="SourceGraphic" in2="effect1_dropShadow_11_3" result="shape"/></filter><filter id="filter3_d_11_3" x="203.331" y="452.343" width="21.315" height="21.314" filterUnits="userSpaceOnUse" color-interpolation-filters="sRGB"><feFlood flood-opacity="0" result="BackgroundImageFix"/><feColorMatrix in="SourceAlpha" values="0 0 0 0 0 0 0 0 0 0 0 0 0 0 0 0 0 0 127 0" result="hardAlpha"/><feOffset dy="3"/><feGaussianBlur stdDeviation="2.5"/><feColorMatrix values="0 0 0 0 0.345098 0 0 0 0 0 0 0 0 0 0.894118 0 0 0 0.4 0"/><feBlend in2="BackgroundImageFix" result="effect1_dropShadow_11_3"/><feBlend in="SourceGraphic" in2="effect1_dropShadow_11_3" result="shape"/></filter><filter id="filter4_d_11_3" x="33.133" y="369.128" width="21.635" height="22.132" filterUnits="userSpaceOnUse" color-interpolation-filters="sRGB"><feFlood flood-opacity="0" result="BackgroundImageFix"/><feColorMatrix in="SourceAlpha" values="0 0 0 0 0 0 0 0 0 0 0 0 0 0 0 0 0 0 127 0" result="hardAlpha"/><feOffset dy="3"/><feGaussianBlur stdDeviation="2.5"/><feColorMatrix values="0 0 0 0 1 0 0 0 0 0.709804 0 0 0 0 0.203922 0 0 0 0.4 0"/><feBlend in2="BackgroundImageFix" result="effect1_dropShadow_11_3"/><feBlend in="SourceGraphic" in2="effect1_dropShadow_11_3" result="shape"/></filter><filter id="filter5_d_11_3" x="173.424" y="81.483" width="21.635" height="22.133" filterUnits="userSpaceOnUse" color-interpolation-filters="sRGB"><feFlood flood-opacity="0" result="BackgroundImageFix"/><feColorMatrix in="SourceAlpha" values="0 0 0 0 0 0 0 0 0 0 0 0 0 0 0 0 0 0 127 0" result="hardAlpha"/><feOffset dy="3"/><feGaussianBlur stdDeviation="2.5"/><feColorMatrix values="0 0 0 0 0.996078 0 0 0 0 0.243137 0 0 0 0 0.341176 0 0 0 0.4 0"/><feBlend in2="BackgroundImageFix" result="effect1_dropShadow_11_3"/><feBlend in="SourceGraphic" in2="effect1_dropShadow_11_3" result="shape"/></filter></defs></svg>
